X:1
T:Goethe, 65.65 D
T:Anonymous
T:Goethe, 65.65 D
T:Public Domain
C:Anonymous
Z:Public Domain
%%score ( 1 2 ) 3
L:1/8
M:4/4
K:Ab
V:1 treble 
V:2 treble 
V:3 bass 
V:1
 [CE]2 [CF]2 [CG]2 [CA]2 | [DA]4 [DG]4 | [DE]2 [DE]2 [DF]2 [DE]2 | [CE]8 | %4
 [CF]2 [CG]2 [CA]2 [Cc]2 | [Ec]4 [EB]4 | [=DB]2 [DF]2 [DG]2 [DF]2 | E8 | [CE]2 [Cc]2 [CB]2 [CA]2 | %9
 [DA]4 [DG]4 | E2 [Ed]2 [Ec]2 [EB]2 | [Ee]8 | [_Ge]2 [Ge]2 [Gd]2 [Gc]2 | [FB]4 [DF]4 | %14
 [DG]2 [DF]2 [DE]2 [DB]2 | [CA]8 |] %16
V:2
 x8 | x8 | x8 | x8 | x8 | x8 | x8 | E8 | x8 | x8 | x8 | x8 | x8 | x8 | x8 | x8 |] %16
V:3
 [A,,E,]2 [A,,E,]2 [A,,E,]2 [A,,E,]2 | [B,,E,]4 [B,,E,]4 | [G,B,]2 [G,B,]2 [E,G,]2 [E,G,]2 | %3
 [A,,A,]8 | [A,,A,]2 [A,,G,]2 [A,,F,]2 [A,,F,]2 | [B,,G,]4 [B,,G,]4 | %6
 [B,,F,]2 [B,,B,]2 [B,,B,]2 [B,,A,]2 | [E,G,]8 | [A,,A,]2 [A,,E,]2 [A,,E,]2 [A,,E,]2 | %9
 [B,,E,]4 [B,,E,]4 | [B,,G,]2 [B,,G,]2 [D,G,]2 [D,G,]2 | [C,A,]8 | %12
 [C,=A,]2 [C,A,]2 [C,A,]2 [C,A,]2 | [D,B,]4 [B,,B,]4 | [E,B,]2 [E,A,]2 [E,G,]2 [E,G,]2 | %15
 [A,,A,]8 |] %16

